X:9
T:La Belle Catherine
S:John Moore's Book 1
Z:Transcribed by Paul Barber-Riley  March 2016
M:2/4
L:1/8
K:D
%%VWML: Moore1-4493-p6-0
F:http://www.vwml.org/record/Moore1/4493/p6
d2 (f/e/d/e/) |(fd)(dc) | B2 (efed) | cAAc |
d2 (f/e/d/e/) | (fd)(dc) | Be (dcBA) | d2!fermata!D2:|
|:(FA)(AG) | (FA)(AG) | (F/A/d/e/) dc/B/ | (cA)(AG) |
(F/G/A/B/)  AG | FA (AB/c/) | d>e (fe/d/) | a2!fermata!A2:|
